!!!COM: Bach, Johann Sebastian
!!!CDT: 1685/3//-1750/7/28/
!!!OTL@@DE: Hilf, Herr Jesu, lass gelingen
!!!AGN: 4-Part Chorale
!!!SCT: BH 368
!!!SCT: BWV 248
**harm	**root	**kern	**kern	**kern	**kern
*	*Iorgan	*Iorgan	*Iorgan	*Iorgan	*Iorgan
!	!	!bass	!tenor	!alto	!soprno
*M3/4	*M3/4	*M3/4	*M3/4	*M3/4	*M3/4
*MM60	*MM60	*MM60	*MM60	*MM60	*MM60
*k[b-e-a-d-]	*k[b-e-a-d-]	*k[b-e-a-d-]	*k[b-e-a-d-]	*k[b-e-a-d-]	*k[b-e-a-d-]
*A-:	*A-:	*A-:	*A-:	*A-:	*A-:
*>[A,A,B]	*>[A,A,B]	*>[A,A,B]	*>[A,A,B]	*>[A,A,B]	*>[A,A,B]
*>A	*>A	*>A	*>A	*>A	*>A
=1-	=1-	=1-	=1-	=1-	=1-
I	4FF	8A-	4a-	4cc	4ee-
.	.	8B-	.	.	.
Ib	2FF	4c	2e-	2a-	2cc
.	.	4A-	.	.	.
=2	=2	=2	=2	=2	=2
V	2CC	2E-	4.e-	4a-	2b-
.	.	.	.	4g	.
.	.	.	8d-	.	.
vi	4DD	4F	4c	4a-	4a-
=3	=3	=3	=3	=3	=3
ii	4GG	8B-	2d-	4f	4dd-
.	.	8A-	.	.	.
v7b	4CC	4G-	.	4b-	4.ee-
I	4FF	4A-	8c	4a-	.
.	.	.	16d-	.	16ff
.	.	.	16e-	.	16gg-
=4	=4	=4	=4	=4	=4
IV	2.BB-	8D-	4e-	2.a-	2.ff
.	.	8E-	.	.	.
.	.	4F	8d-	.	.
.	.	.	8c	.	.
.	.	4D-	4d-	.	.
=5	=5	=5	=5	=5	=5
I;	2.FF;	2.A-;	2.c;	2.a-;	2.ee-;
=6	=6	=6	=6	=6	=6
vi	4DD	4F	4a-	4cc	4ff
ii	2GG	4B-	2f	2b-	2dd-
.	.	4A-	.	.	.
=7	=7	=7	=7	=7	=7
Vb	4CC	4G	8e-	4b-	2ee-
.	.	.	8d-	.	.
I	4FF	8A-	4c	4a-	.
.	.	8G	.	.	.
vi	4DD	8F	4c	4a-	4a-
.	.	8E-	.	.	.
=8	=8	=8	=8	=8	=8
IVb	8BB-	8F	8f	8a-	4dd-
V7b	8CC	8G	8e-	8b-	.
I	2FF	4A-	2e-	4b-	2cc
.	.	4A-	.	4a-	.
=9	=9	=9	=9	=9	=9
V;	2.CC;	2.E-;	2.e-;	2.g;	2.b-;
*>B	*>B	*>B	*>B	*>B	*>B
!!linebreak: 2
=10:|!	=10:|!	=10:|!	=10:|!	=10:|!	=10:|!
V	4CC	8E-	2e-	8b-	4gg
.	.	8F	.	8a-	.
Vb	4CC	4G	.	4b-	2ee-
V	4CC	4E-	4g	4b-	.
=11	=11	=11	=11	=11	=11
I	2FF	8A-	2e-	4b-	2cc
.	.	8G	.	.	.
.	.	4A-	.	4a-	.
IV	4BB-	4d-	[4d-	4a-	4ff
=12	=12	=12	=12	=12	=12
viioD7	4EE	4G	4d-]	4b-	4ee
vib	4DD	4A-	4c	4cc	4.ff
IVb	8BB-	4F	8f	8dd-	.
vi7	8DD	.	8e-	8cc	16gg
.	.	.	.	.	16aa-
=13	=13	=13	=13	=13	=13
vii7d	4EE	4F	4d-	8b-	2.gg
.	.	.	.	8a-	.
V7d/vi	4.AA	8E	8c	4.b-	.
.	.	8D	8B-	.	.
.	.	4E	4c	.	.
Vb/vi	8AA	.	.	8g	.
=14	=14	=14	=14	=14	=14
vi;	2.DD;	2.F;	2.c;	2.a-;	2.cc;
=15	=15	=15	=15	=15	=15
IV	4BB-	8d-	4.d-	4a-	4ff
.	.	8c	.	.	.
viib	4EE	4B-	.	4b-	4gg
.	.	.	8B-	.	.
I	4FF	4A-	4e-	4cc	4aa-
=16	=16	=16	=16	=16	=16
Vb	4CC	8G	2e-	8b-	4bb-
.	.	8F	.	8a-	.
Vb	4CC	4G	.	4b-	4ee-
V7	4CC	4E-	4B-	4g	4dd-
=17	=17	=17	=17	=17	=17
I	4FF	4A-	2A-	4e-	4cc
IV	4BB-	2D-	.	4d-	4ff
IV	4BB-	.	4f	4a-	4dd-
=18	=18	=18	=18	=18	=18
V	4CC	8E-	4B-	4a-	2.b-
.	.	8D-	.	.	.
V	2CC	2E-	4e-	8g	.
.	.	.	.	8f	.
.	.	.	4d-	4g	.
=19	=19	=19	=19	=19	=19
I;	2.FF;	2.AA-;	2.c;	2.e-;	2.a-;
==	==	==	==	==	==
*-	*-	*-	*-	*-	*-
!!chor2scor: -l 2 -o %b.pmx
!!!YEC: Copyright 1994 by David Huron
!!!YEC: Changes/Additions 2001 by Craig Stuart Sapp
!!!YEN: United States of America
!!!SMA: 371 Bach Chorales, edited by Ludwig Erk, C.F. Peters
!!!PDT: 1850, 1865
!!!ONB: Harmony and Root analysis done manually
